X:1
T:Army of Endeavor
T:Army of Endeavor
T:Ira David Sankey
T:Ira David Sankey, 1891
T:Public Domain Courtesy of the Cyber Hymnal™
T:Public Domain Courtesy of the Cyber Hymnal™
C:Ira David Sankey
Z:Public Domain
Z:Courtesy of the Cyber Hymnal™
%%score 1 2
L:1/8
Q:1/4=105
M:4/4
K:Bb
V:1 treble 
V:2 bass 
V:1
 [B,D]>[CE] [DF]>[EG] [DF]2 [Fd]2 | [Ec]>[EB] [EB]>[EG] [EB]4 | [EA]>[EA] [EA]>[DB] [Fc]2 F2 | %3
w: 1.~Ar- my of En- dea- vor,|hear the trum- pet call;|’Gainst the foe ad- vanc- ing,|
w: 2.~In His roy- al ser- vice,|there’s a work for all,|Cheer- ing on the faint ones,|
w: 3.~Ev- er press- ing on- ward|in the cause of right,|Hold- ing up the ban- ner,|
 F>F [FB]>[Ec] [Dd]4 | [B,D]>[CE] [DF]>[EG] [DF]2 [Fd]2 | [Ec]>[EB] [Ec]>[EG] [EB]4 | %6
w: for- ward one and all!|Christ is our com- mand- er;|faith- ful let us be:|
w: lift- ing those that fall;|Un- to Him who calls us|ev- er faith- ful be:|
w: walk- ing in the light;|Keep- ing His com- mand- ments,|great re- wards have we!|
 [EA]>[EA] [EA]>[EA] [EA]>[EF] [EG]>[EA] | [DB]8 ||"^Refrain" [Fd]>[Ge] [^Fd]>[Ac] [GB]2 [FA]2 | %9
w: He will give to us the vic- to-|ry!||
w: He will give to us the vic- to-|ry!|Though the bat- tle rag- es,|
w: He will give to us the vic- to-|ry!||
 [EG]>[E^F] [EG]>[EA] [EB]4 | [=Ec]>[Ed] [Ec]>[GB] [FA]2 [FB]2 | [Fc]>[Fc] [Fd]>[Fd] [Fe]4 | %12
w: |||
w: what have we to fear?|In the wild- est con- flict,|He is ev- er near.|
w: |||
 [Fd]>[Ge] [Fd]>[Fc] [FB]2 [FA]2 | [EG]>[FA] [FB]>[Fc] [Fd]4 | [Ge]>[Gc] [Ff]>[Ge] [Fd]2 [Ec]2 | %15
w: |||
w: Trust- ing in our lead- er,|faith- ful let us be:|He will give the vic- to-|
w: |||
 [DB]8 |] %16
w: |
w: ry!|
w: |
V:2
 [B,,F,]>[B,,F,] [B,,B,]>[B,,B,] [B,,B,]2 [B,,B,]2 | [E,G,]>[E,G,] [E,G,]>[E,B,] [E,G,]4 | %2
 F,>[F,C] [F,C]>[F,B,] [F,A,]2 [F,A,]2 | [F,A,]>[E,C] [E,B,]>[C,A,] [B,,B,]4 | %4
 [B,,F,]>[B,,F,] [B,,B,]>[B,,B,] [B,,B,]2 [B,,B,]2 | [E,G,]>[E,G,] [E,G,]>[E,B,] [E,G,]4 | %6
 F,>[F,C] [F,C]>[F,C] [F,C]>[F,A,] [F,B,]>[F,C] | [B,,B,]8 || %8
 [B,,B,]>[B,,B,] [D,A,]>[D,D] [G,D]2 [D,C]2 | [E,B,]>[E,A,] [E,B,]>[E,G,] [E,G,]4 | %10
 [C,B,]>[C,B,] [C,G,]>[C,C] [F,C]2 [F,G,]2 | [F,A,]>[F,A,] [F,B,]>[F,B,] [F,C]4 | %12
 [B,,B,]>[B,,B,] [B,,B,]>[C,A,] [D,B,]2 [D,B,]2 | [E,B,]>[E,C] [D,B,]>[C,A,] [B,,B,]4 | %14
 [E,B,]>[E,B,] [D,B,]>[E,B,] [F,B,]2 [F,A,]2 | [B,,B,]8 |] %16

